symbols/web/replay/materialsymbolsoutlined/replay_gradN25_48px.svg

<svg xmlns="http://www.w3.org/2000/svg" height="48" width="48"><path d="M24 43.75q-3.7 0-6.925-1.4-3.225-1.4-5.65-3.8-2.425-2.4-3.8-5.65-1.375-3.25-1.375-6.95H9.1q0 6.2 4.35 10.55Q17.8 40.85 24 40.85q6.2 0 10.55-4.325Q38.9 32.2 38.9 25.95q0-6.2-4.225-10.525T24.25 11.1H23.1l3.65 3.65-2 1.95-7.15-7.15 7.15-7.2 2 1.95-3.9 3.9H24q3.7 0 6.95 1.4t5.65 3.8q2.4 2.4 3.8 5.65 1.4 3.25 1.4 6.9 0 3.7-1.4 6.95t-3.8 5.65q-2.4 2.4-5.65 3.8-3.25 1.4-6.95 1.4Z"/></svg>

<svg xmlns="http://www.w3.org/2000/svg" height="48" width="48"><path d="M24 43.75Q20.3 43.75 17.075 42.35Q13.85 40.95 11.425 38.55Q9 36.15 7.625 32.9Q6.25 29.65 6.25 25.95H9.1Q9.1 32.15 13.45 36.5Q17.8 40.85 24 40.85Q30.2 40.85 34.55 36.525Q38.9 32.2 38.9 25.95Q38.9 19.75 34.675 15.425Q30.45 11.1 24.25 11.1H23.1L26.75 14.75L24.75 16.7L17.6 9.55L24.75 2.35L26.75 4.3L22.85 8.2H24Q27.7 8.2 30.95 9.6Q34.2 11 36.6 13.4Q39 15.8 40.4 19.05Q41.8 22.3 41.8 25.95Q41.8 29.65 40.4 32.9Q39 36.15 36.6 38.55Q34.2 40.95 30.95 42.35Q27.7 43.75 24 43.75Z"/></svg>
